img/icon__cart--yellow.svg

<svg xmlns="http://www.w3.org/2000/svg" width="12" height="12" viewBox="0 0 12 12" fill="#ffc600"><path d="M11.864 3.017a.429.429 0 0 0-.327-.154h-2.312v1.227c0 .563-.484 1.022-1.08 1.022-.594 0-1.078-.458-1.078-1.022v-1.227h-2.158v1.227c0 .563-.485 1.022-1.08 1.022-.595 0-1.078-.458-1.078-1.022v-1.227h-2.313a.43.43 0 0 0-.327.154.472.472 0 0 0-.108.358l.776 7.134c.015.806.642 1.455 1.411 1.455h7.595c.77 0 1.396-.649 1.411-1.455l.776-7.134a.476.476 0 0 0-.108-.358zM3.829 4.499c.239 0 .433-.184.433-.409v-2.25c0-.632.672-1.022 1.295-1.022h1.079c.655 0 1.078.401 1.078 1.022v2.25c0 .225.194.409.431.409.239 0 .433-.184.433-.409v-2.25c-.001-1.067-.817-1.84-1.942-1.84h-1.079c-1.19 0-2.159.826-2.159 1.84v2.25c0 .225.194.409.431.409z"/></svg>

<svg xmlns="http://www.w3.org/2000/svg" width="12" height="12" viewBox="0 0 12 12" fill="#ffc600">
    <path d="M11.864 3.017a.429.429 0 0 0-.327-.154H9.225V4.09c0 .563-.484 1.022-1.08 1.022-.594 0-1.078-.458-1.078-1.022V2.863H4.909V4.09c0 .563-.485 1.022-1.08 1.022-.595 0-1.078-.458-1.078-1.022V2.863H.438a.43.43 0 0 0-.327.154.472.472 0 0 0-.108.358l.776 7.134c.015.806.642 1.455 1.411 1.455h7.595c.77 0 1.396-.649 1.411-1.455l.776-7.134a.476.476 0 0 0-.108-.358z"/>
    <path d="M3.829 4.499c.239 0 .433-.184.433-.409V1.84c0-.632.672-1.022 1.295-1.022h1.079c.655 0 1.078.401 1.078 1.022v2.25c0 .225.194.409.431.409.239 0 .433-.184.433-.409V1.84C8.577.773 7.761 0 6.636 0H5.557c-1.19 0-2.159.826-2.159 1.84v2.25c0 .225.194.409.431.409z"/>
</svg>
